!!!COM: Palestrina, Giovanni Perluigi da
!!!OPR: Missa Eripe me de inimicis
!!!OMD: Credo
!!!OTL: First Section
**kern	**kern	**kern	**kern	**kern
*Ibass	*Itenor	*Itenor	*Icalto	*Icant
!Bassus	!Tenor 2	!Tenor 1	!Altus	!Cantus
*clefF4	*clefGv2	*clefGv2	*clefG2	*clefG2
*k[]	*k[]	*k[]	*k[]	*k[]
*D:dor	*D:dor	*D:dor	*D:dor	*D:dor
*M4/2	*M4/2	*M4/2	*M4/2	*M4/2
=1	=1	=1	=1	=1
0r	0r	0r	0r	1a
.	.	.	.	1a
=2	=2	=2	=2	=2
0r	0r	0r	1d	2r
.	.	.	.	2dd
.	.	.	1d	2ff
.	.	.	.	2dd
=3	=3	=3	=3	=3
0r	0r	1r	2r	1ff
.	.	.	2a	.
.	.	1A	2cc	[1ee
.	.	.	2a	.
=4	=4	=4	=4	=4
0r	0r	1A	2.cc	2ee]
.	.	.	.	2a
.	.	.	4b	.
.	.	2r	4a	2cc
.	.	.	4g	.
.	.	2d	4f	[2a
.	.	.	4e	.
=5	=5	=5	=5	=5
0r	0r	2f	4d	2a]
.	.	.	4e	.
.	.	2d	2.f	2.dd
.	.	1f	.	.
.	.	.	4g	4cc
.	.	.	[2a	4cc
.	.	.	.	8b
.	.	.	.	8a
=6	=6	=6	=6	=6
0r	1r	2e	2a]	1b
.	.	2e	2g#	.
.	1A	2e	2a	2a
.	.	2e	2a	2cc
=7	=7	=7	=7	=7
1D	2A	2.a	2f	2dd
.	2A	.	1d	2dd
.	.	4g	.	.
2D	1d	4f	.	1ff
.	.	4e	.	.
2D	.	2d	[2a	.
=8	=8	=8	=8	=8
2.A	2.c	4e	2a]	1ee
.	.	4d	.	.
.	.	4c	2a	.
4B	4d	4B	.	.
2c	2e	[1A	2a	1r
2A	[2f	.	[2cc	.
=9	=9	=9	=9	=9
1c	2f]	1A]	4cc]	0r
.	.	.	4b	.
.	2.e	.	1a	.
1B-	.	2.d	.	.
.	4d	.	.	.
.	[2d	.	2g	.
.	.	4e	.	.
=10	=10	=10	=10	=10
2.A	4d]	2f	1a	0r
.	8c	.	.	.
.	8B	.	.	.
.	2c#	2.e	.	.
4G	.	.	.	.
2F	1d	.	2.a	.
.	.	4d	.	.
4E	.	[2d	.	.
4D	.	.	4a	.
=11	=11	=11	=11	=11
1E	1G	2d]	2g	1r
.	.	2c#	2e	.
1D	1A	1d	2f	2.dd
.	.	.	[2f	.
.	.	.	.	4dd
=12	=12	=12	=12	=12
0r	0r	2.a	2f]	2cc
.	.	.	2f	2a
.	.	4a	.	.
.	.	2g	1e	2b
.	.	2e	.	[2cc
=13	=13	=13	=13	=13
0r	2.a	1f	2r	2cc]
.	.	.	2a	2dd
.	4a	.	.	.
.	2g	2e	2b	1ee
.	2e	2c	2cc	.
=14	=14	=14	=14	=14
2.d	2f	2d	2a	0r
.	2d	2f	2.b-	.
4d	.	.	.	.
2c	4e	2e	.	.
.	8d	.	4a	.
.	8e	.	.	.
2A	[2f	2c	[2a	.
=15	=15	=15	=15	=15
2B-	4f]	1d	2a]	0r
.	4e	.	.	.
2B-	2.d	.	2g	.
1A	.	2.e	1a	.
.	8c	.	.	.
.	8B	.	.	.
.	2c#	.	.	.
.	.	4e	.	.
=16	=16	=16	=16	=16
2r	1d	2f#	2r	2r
1D	.	1f#	1a	1dd
.	2r	.	.	.
2D	[2d	2f#	2a	2dd
=17	=17	=17	=17	=17
1G	2d]	1g	1b-	2dd
.	2d	.	.	2dd
2D	2d	2a	2f	2.ff
[2D	2d	[2d	[2a	.
.	.	.	.	4ee
=18	=18	=18	=18	=18
2D]	2f	2d]	2a]	2dd
2D	2f	2d	2a	2dd
1A	[1e	2.c#	1a	1ee
.	.	4d	.	.
=19	=19	=19	=19	=19
1E	2e]	2e	1g#	1ee
.	2B	1e	.	.
1A	1c#	.	1a	1ee
.	.	2e	.	.
=20	=20	=20	=20	=20
0D	1.d	2.a	2.f	0dd
.	.	4g	4g	.
.	.	1f	1a	.
.	[2A	.	.	.
=21	=21	=21	=21	=21
0A	2A]	2.e	0a	1cc#
.	2.e	.	.	.
.	.	4d	.	.
.	.	2.c	.	2r
.	4e	.	.	.
.	2e	.	.	[2ee
.	.	4B	.	.
=22	=22	=22	=22	=22
0r	2.c	1A	2r	4ee]
.	.	.	.	4ee
.	.	.	2.a	2ee
.	8d	.	.	.
.	8e	.	.	.
.	2f	1r	.	2cc
.	.	.	4a	.
.	2f	.	2a	2dd
=23	=23	=23	=23	=23
0r	2e	0r	2g	2ee
.	2d	.	2a	2ff
.	2g	.	2b-	4ee
.	.	.	.	4dd
.	2g	.	2b-	[2dd
=24	=24	=24	=24	=24
2r	2f	0r	1a	2dd]
2.A	4e	.	.	4cc
.	4d	.	.	4b
.	2e	.	2a	[1cc
4A	.	.	.	.
2A	2c	.	[2a	.
=25	=25	=25	=25	=25
2F	2A	2r	2a]	2cc]
2G	2B	2.e	4g	2b
.	.	.	4f	.
[1A	2.c	.	2e	1a
.	.	4e	.	.
.	.	2e	2cc	.
.	4B	.	.	.
=26	=26	=26	=26	=26
2A]	2A	2c	2cc	0r
2G	2B	2d	2.b	.
2F	2c	2f	.	.
.	.	.	4a	.
2D	2d	2f	[2a	.
=27	=27	=27	=27	=27
1E	2B	2.e	2a]	1r
.	2B	.	2g#	.
.	.	4e	.	.
1A	2A	2c	2a	2r
.	[2a	[2A	[2cc	[2ee
=28	=28	=28	=28	=28
0r	2a]	2A]	2cc]	2ee]
.	2g#	2e	2b	2ee
.	2a	2f	2a	2cc
.	2f	2d	2a	2dd
=29	=29	=29	=29	=29
0r	1g	1c	1cc	1ee
.	1g	1G	1b	2dd
.	.	.	.	[2gg
=30	=30	=30	=30	=30
0r	2.d	0r	2.a	2gg]
.	.	.	.	2ff
.	4d	.	4a	.
.	2e	.	2g	2.ee
.	2c	.	2cc	.
.	.	.	.	4ee
=31	=31	=31	=31	=31
0r	2g	1r	2b	2dd
.	2.a	.	1cc	2.ff
.	.	2r	.	.
.	4g	.	.	4ee
.	4f	2A	2cc	[2ee
.	4e	.	.	.
=32	=32	=32	=32	=32
1D	2f	2.d	0a	2ee]
.	2f	.	.	2dd
.	.	4d	.	.
2.A	2.e	4c	.	2ee
.	.	4d	.	.
.	.	4e	.	2a
4A	8d	4f#	.	.
.	8c	.	.	.
=33	=33	=33	=33	=33
1G	1B	1g	2r	2.dd
.	.	.	2d	.
.	.	.	.	4dd
2A	1r	2e	2.a	1cc
[2c	.	2e	.	.
.	.	.	4a	.
=34	=34	=34	=34	=34
2c]	0r	1d	1g	2dd
2B-	.	.	.	2dd
1A	.	2f	2a	2.cc
.	.	[2e	2cc	.
.	.	.	.	4cc
=35	=35	=35	=35	=35
2G	1r	4e]	2b-	2dd
.	.	4d	.	.
2F	.	1d	2a	2dd
1E	2r	.	2g	1ee
.	2e	2c#	2g	.
=36	=36	=36	=36	=36
1D	1a	2.d	2.f	2r
.	.	.	.	2a
.	.	4c	4e	.
1r	1g	1B-	4d	1dd
.	.	.	4c	.
.	.	.	2d	.
=37	=37	=37	=37	=37
2r	2.a	1A	1e	1cc#
2A	.	.	.	.
.	4g	.	.	.
1d	4f	2r	1r	2dd
.	4e	.	.	.
.	2d	[2a	.	[2ff
=38	=38	=38	=38	=38
1c#	1A	4a]	0r	2ff]
.	.	4a	.	.
.	.	2a	.	2ee
2d	[1d	2f	.	2dd
2B-	.	2f	.	[2dd
=39	=39	=39	=39	=39
2B-	2d]	2g	0r	2dd]
2A	2e	2a	.	2cc
1G	1g	2d	.	1b-
.	.	2e	.	.
=40	=40	=40	=40	=40
0F	2c	1f	2r	2a
.	2.f	.	2.a	2.cc
.	.	1r	.	.
.	4f	.	4a	4cc
.	2f	.	2a	2dd
=41	=41	=41	=41	=41
0r	2g	1r	2b	2.ee
.	2.a	.	2.cc	.
.	.	.	.	4dd
.	.	2r	.	2ee
.	4g	.	4b	.
.	4f	[2f	4a	[2ff
.	4e	.	4g	.
=42	=42	=42	=42	=42
0r	2.d	4f]	4a	4ff]
.	.	4f	4b-	4ee
.	.	2f	2.a	1dd
.	4f	.	.	.
.	1e	1g	.	.
.	.	.	4g	.
.	.	.	[2g	2cc#
=43	=43	=43	=43	=43
1r	1d	1a	2g]	0dd
.	.	.	2f	.
2r	2r	1d	2r	.
[2B-	[2d	.	[2f	.
=44	=44	=44	=44	=44
4B-]	4d]	0r	4f]	0r
4B-	4d	.	4f	.
2B-	2d	.	2f	.
2G	2e	.	2g	.
2F	2f	.	[2a	.
=45	=45	=45	=45	=45
2A	2e	0r	4a]	0r
.	.	.	4g	.
2.B-	2.d	.	4f	.
.	.	.	4e	.
.	.	.	2d	.
4A	4c	.	.	.
2F	2A	.	2f	.
=46	=46	=46	=46	=46
2G	2B	1r	1e	1r
2A	2c#	.	.	.
[1D	[1d	2r	2d	2r
.	.	[2f	[2a	[2dd
=47	=47	=47	=47	=47
1D]	1d]	4f]	4a]	4dd]
.	.	4f	4a	4dd
.	.	2f	2a	2dd
1r	1r	2g	2b	2ee
.	.	[2a	[2cc	2ff
=48	=48	=48	=48	=48
0r	0r	4a]	4cc]	2ee
.	.	4g	4b	.
.	.	4f	4a	2.dd
.	.	4e	4g	.
.	.	2d	2f	.
.	.	.	.	4cc
.	.	2f	[2a	4cc
.	.	.	.	8b
.	.	.	.	8a
=49	=49	=49	=49	=49
1r	1r	1e	2a]	1b
.	.	.	2g#	.
2r	2r	2A	1a	1a
2F	2A	2a	.	.
=50	=50	=50	=50	=50
2G	2B	2g	0r	0r
2A	2c#	2e	.	.
4D	2d	1f	.	.
4E	.	.	.	.
4F	4A	.	.	.
4G	4B	.	.	.
=51	=51	=51	=51	=51
1A	4c	2.e	1r	2r
.	4d	.	.	.
.	2.e	.	.	2cc
.	.	8d	.	.
.	.	8c	.	.
2G	.	2B	2r	1dd
.	4d	.	.	.
2F	[2d	2A	2a	.
=52	=52	=52	=52	=52
1E	2d]	2B	2g	1ee
.	2c#	4A	2e	.
.	.	4G	.	.
1D	1d	[1A	2.f	2.a
.	.	.	4g	4b
=53	=53	=53	=53	=53
0r	1r	1A]	4a	4cc
.	.	.	4b	4dd
.	.	.	2cc	2ee
.	2r	1r	2b	2dd
.	2c	.	[2a	2cc
=54	=54	=54	=54	=54
1r	2d	1r	2a]	1b
.	2e	.	2g#	.
2r	4A	2r	2a	1a
.	4B	.	.	.
2F	4c	2A	2a	.
.	4d	.	.	.
=55	=55	=55	=55	=55
2G	1e	2B	2g	0r
2A	.	2c#	2e	.
4D	1d	2d	1f	.
4E	.	.	.	.
4F	.	[2A	.	.
4G	.	.	.	.
=56	=56	=56	=56	=56
1A	2c	4A]	2e	2r
.	.	4B	.	.
.	2.e	2c	2A	2cc
2G	.	2B	2r	1dd
.	4d	.	.	.
2F	[2d	2A	2a	.
=57	=57	=57	=57	=57
1E	2d]	1e	2g	1ee
.	2c#	.	2e	.
1D	2d	2r	2.f	2.a
.	2d	2f	.	.
.	.	.	8e	4b
.	.	.	8d	.
=58	=58	=58	=58	=58
2r	2c	2g	4e	1cc
.	.	.	4d	.
2A	2A	2a	4e	.
.	.	.	4f	.
2G	2B	4d	2g	2b
.	.	4e	.	.
4D	2d	4f	2a	[2a
4E	.	4g	.	.
=59	=59	=59	=59	=59
4F	1A	1a	1f	4a]
4G	.	.	.	4b
4A	.	.	.	4cc
4B	.	.	.	4dd
2c	2r	2g	2e	2ee
2d	2d	2f	2a	[2dd
=60	=60	=60	=60	=60
0A	4e	0e	0a	2dd]
.	4A	.	.	.
.	2.a	.	.	4cc#
.	.	.	.	4b
.	.	.	.	1cc#
.	4g	.	.	.
.	2e	.	.	.
=61	=61	=61	=61	=61
1D	1f#	1d	1a	1dd
1r	1r	1r	1r	1r
=62	=62	=62	=62	=62
0D	0f#	0d	0a	0dd
=63	=63	=63	=63	=63
1G	1g	1d	1b	1dd
1C	1g	1c	1cc	1ee
=64	=64	=64	=64	=64
1F	1a	1A	1cc	1ff
1C	1g	1c	1cc	1ee
=65	=65	=65	=65	=65
1G	2g	2d	2b	2dd
.	2g	2G	2b	2dd
1r	2.g	2.c	2.cc	2.ee
.	4g	4c	4cc	4ee
=66	=66	=66	=66	=66
0r	4a	2A	4cc	2ee
.	4g	.	4b	.
.	4f	2.a	4a	2.ff
.	4e	.	4g	.
.	2.d	.	2.f	.
.	.	4g	.	4ee
.	.	4f	.	4dd
.	4e	4e	4g	4cc#
=67	=67	=67	=67	=67
0r	2f	2d	1a	2dd
.	2e	2c#	.	1ee
.	1f	1d	1a	.
.	.	.	.	2dd
=68	=68	=68	=68	=68
1.A	1e	2r	1a	2ee
.	.	1c#	.	1ee
.	2r	.	2r	.
2A	[2A	2c#	[2a	2ee
=69	=69	=69	=69	=69
2.D	2A]	1d	2a]	0ff
.	2d	.	2a	.
4E	.	.	.	.
1F	2.c	1A	1a	.
.	4d	.	.	.
=70	=70	=70	=70	=70
1C	2e	2.c	1g	1ee
.	2e	.	.	.
.	.	4B	.	.
1D	2.a	1A	2.f	[1dd
.	4g	.	4g	.
=71	=71	=71	=71	=71
1D	1f	1.B	2a	2dd]
.	.	.	2a	2dd
[1A	1e	.	1a	2ee
.	.	4c	.	2a
.	.	4B	.	.
=72	=72	=72	=72	=72
1A]	2.a	2c#	2r	2ee
.	.	2c#	2e	2ee
.	4g	.	.	.
2r	4f	1d	2a	1ff
.	4e	.	.	.
2D	2d	.	2a	.
=73	=73	=73	=73	=73
2A	1e	2r	4cc	1ee
.	.	.	4b-	.
2A	.	2A	4a	.
.	.	.	4g	.
1B-	1r	2d	2.f	[1dd
.	.	2d	.	.
.	.	.	4g	.
=74	=74	=74	=74	=74
0A	2r	2f	0a	2dd]
.	2A	2.e	.	4cc
.	.	.	.	4b
.	2e	.	.	4cc
.	.	4d	.	4dd
.	2e	4c	.	[2ee
.	.	4B	.	.
=75	=75	=75	=75	=75
2.F	1f	0A	0a	4ee]
.	.	.	.	4dd
.	.	.	.	1dd
4G	.	.	.	.
1A	1e	.	.	.
.	.	.	.	2cc#
=76	=76	=76	=76	=76
[0D	[0d	[0A	[0f#	[0dd
=77	=77	=77	=77	=77
0D]	0d]	0A]	0f#]	0dd]
*-	*-	*-	*-	*-
!!!CDT: 1525/^1526/-1594/2/2
!!!OCY: Italia
!!!AGN: Mass (Parody)
!!!AST: renaissance, vocal
!!!ASW: Motet 1559 (Maillard)
!!!PWK: Masses, Book 4
!!!RNB: Cadence finals: A
!!!YOR: Le Opere Complete, v. 10, p. 79
!!!YOO: Rome, Italy: Fratelli Scalera
!!!END: 1992//
!!!EED: John Miller
!!!YEC: Copyright 2000, John Miller
!!!YEN: United States of America
!!!YEM: Rights to all derivative electronic formats reserved.
!!!YEM: Refer to licensing agreement for further details.
!!!YEM: This file must be accompanied by the licensing agreement.
!!!YEM: A copy of the licensing agreement may be found at http://www.music-cog.ohio-state.edu/HumdrumDatabases/Palestrina/license.txt
!!!EMD: converted to Humdrum by Bret Aarden
